X:322
T:The Home Ruler
M:4/4
L:1/8
K:D
FE|"D"D2 FA D2 FA|dfed "G"BcdB|"D"A3 B AFDE|
FDED BDAF|"D"D2 FA D2 FA|dfed "G"BcdB|"D"A3 B AFDE|F2 D2 D2:|
|:AB|"D"d3 c defg|afbf afed|"A"efed BA (3Bcd|"D"fded BdAB|
d3 c defg|afbf afed|"A"efed BA (3dcB|"D"AF"A"EF "D"D2:|
